svg/filled/mining.svg

<svg width="24" height="24" viewBox="0 0 24 24" fill="none" xmlns="http://www.w3.org/2000/svg">
<path d="M12.101 2.90055C12.2146 2.83225 12.3508 2.8119 12.4794 2.84399L15.8755 3.69071C16.1324 3.75477 16.2929 4.00688 16.2467 4.26372C18.6108 5.37088 20.3713 7.19467 21.0609 9.24662C21.1343 9.46479 21.0492 9.70483 20.8548 9.82812C20.6605 9.95141 20.4071 9.9261 20.2409 9.7668C19.0305 8.60617 17.4469 7.59561 15.5992 6.86542L15.5744 6.96513C15.5423 7.0938 15.4604 7.20446 15.3467 7.27276C15.2331 7.34106 15.0969 7.3614 14.9683 7.32932L14.4831 7.20836L13.5759 10.847C13.8439 10.9138 14.0069 11.1851 13.9401 11.4531L11.6418 20.6709C11.6098 20.7996 11.5279 20.9102 11.4142 20.9785C11.3005 21.0468 11.1644 21.0672 11.0357 21.0351L8.60999 20.4303C8.34205 20.3635 8.179 20.0921 8.24581 19.8242L10.5441 10.6064C10.5761 10.4777 10.658 10.367 10.7717 10.2987C10.8854 10.2304 11.0215 10.2101 11.1502 10.2422L12.0574 6.60356L11.5722 6.48259C11.3043 6.41579 11.1412 6.14443 11.208 5.87649L11.2329 5.77678C9.25866 5.55406 7.38598 5.70288 5.77237 6.15943C5.5509 6.22209 5.31527 6.12547 5.20155 5.92537C5.08782 5.72527 5.12539 5.47339 5.29255 5.31518C6.86478 3.82713 9.27548 3.04332 11.8826 3.17562C11.9196 3.06091 11.997 2.96302 12.101 2.90055Z" fill="black"/>
</svg>

<svg xmlns="http://www.w3.org/2000/svg" viewBox="0 0 24 24" fill="currentColor">
  <path d="M12.101 2.9a.5.5 0 01.378-.056l3.397.847a.5.5 0 01.37.573c2.365 1.107 4.125 2.93 4.815 4.983a.5.5 0 01-.82.52c-1.21-1.16-2.794-2.171-4.642-2.902l-.025.1a.5.5 0 01-.606.364l-.485-.12-.907 3.638a.5.5 0 01.364.606l-2.298 9.218a.5.5 0 01-.606.364L8.61 20.43a.5.5 0 01-.364-.606l2.298-9.218a.5.5 0 01.606-.364l.907-3.638-.485-.121a.5.5 0 01-.364-.607l.025-.1c-1.974-.222-3.847-.073-5.46.383a.5.5 0 01-.48-.844c1.572-1.488 3.982-2.272 6.59-2.14a.5.5 0 01.218-.274z"/>
</svg>
